symbols/web/visibility_off/materialsymbolsoutlined/visibility_off_wght500grad200_48px.svg

<svg xmlns="http://www.w3.org/2000/svg" height="48" width="48"><path d="M31.85 27.2 29 24.3q1.15-3.25-1.3-5.35-2.45-2.1-5.05-1l-2.85-2.8q.85-.55 1.975-.8T24 14.1q3.75 0 6.325 2.575T32.9 23q0 1.1-.25 2.25t-.8 1.95ZM38.6 34l-2.5-2.55q2.4-1.8 4.2-4.025Q42.1 25.2 43 23q-2.6-5.55-7.6-8.825-5-3.275-10.9-3.275-2.1 0-4.3.4-2.2.4-3.3.95l-2.9-3q1.75-.75 4.625-1.4Q21.5 7.2 24.25 7.2q7.4 0 13.575 4.25Q44 15.7 46.9 23q-1.25 3.4-3.4 6.15-2.15 2.75-4.9 4.85Zm2.25 11.7-8.45-8.35q-1.75.7-3.95 1.075T24 38.8q-7.55 0-13.775-4.25Q4 30.3 1.1 23q.9-2.65 2.675-5.15Q5.55 15.35 8.05 13l-6.3-6.25 2.55-2.6 38.9 38.9ZM10.7 15.65q-1.8 1.4-3.4 3.45Q5.7 21.15 5 23q2.55 5.6 7.7 8.85t11.7 3.25q1.45 0 2.875-.2t2.125-.55l-2.85-2.9q-.45.2-1.15.325T24 31.9q-3.7 0-6.3-2.55-2.6-2.55-2.6-6.35 0-.65.1-1.325.1-.675.3-1.225Zm15.85 6.65Zm-6.5 3.25Z"/></svg>

<svg xmlns="http://www.w3.org/2000/svg" height="48" width="48"><path d="M31.85 27.2 29 24.3Q30.15 21.05 27.7 18.95Q25.25 16.85 22.65 17.95L19.8 15.15Q20.65 14.6 21.775 14.35Q22.9 14.1 24 14.1Q27.75 14.1 30.325 16.675Q32.9 19.25 32.9 23Q32.9 24.1 32.65 25.25Q32.4 26.4 31.85 27.2ZM38.6 34 36.1 31.45Q38.5 29.65 40.3 27.425Q42.1 25.2 43 23Q40.4 17.45 35.4 14.175Q30.4 10.9 24.5 10.9Q22.4 10.9 20.2 11.3Q18 11.7 16.9 12.25L14 9.25Q15.75 8.5 18.625 7.85Q21.5 7.2 24.25 7.2Q31.65 7.2 37.825 11.45Q44 15.7 46.9 23Q45.65 26.4 43.5 29.15Q41.35 31.9 38.6 34ZM40.85 45.7 32.4 37.35Q30.65 38.05 28.45 38.425Q26.25 38.8 24 38.8Q16.45 38.8 10.225 34.55Q4 30.3 1.1 23Q2 20.35 3.775 17.85Q5.55 15.35 8.05 13L1.75 6.75L4.3 4.15L43.2 43.05ZM10.7 15.65Q8.9 17.05 7.3 19.1Q5.7 21.15 5 23Q7.55 28.6 12.7 31.85Q17.85 35.1 24.4 35.1Q25.85 35.1 27.275 34.9Q28.7 34.7 29.4 34.35L26.55 31.45Q26.1 31.65 25.4 31.775Q24.7 31.9 24 31.9Q20.3 31.9 17.7 29.35Q15.1 26.8 15.1 23Q15.1 22.35 15.2 21.675Q15.3 21 15.5 20.45ZM26.55 22.3Q26.55 22.3 26.55 22.3Q26.55 22.3 26.55 22.3Q26.55 22.3 26.55 22.3Q26.55 22.3 26.55 22.3Q26.55 22.3 26.55 22.3Q26.55 22.3 26.55 22.3ZM20.05 25.55Q20.05 25.55 20.05 25.55Q20.05 25.55 20.05 25.55Q20.05 25.55 20.05 25.55Q20.05 25.55 20.05 25.55Q20.05 25.55 20.05 25.55Q20.05 25.55 20.05 25.55Z"/></svg>
